svgs/thin/square-h.svg

<svg xmlns="http://www.w3.org/2000/svg" viewBox="0 0 448 512"><!--! Font Awesome Pro 6.6.0 by @fontawesome - https://fontawesome.com License - https://fontawesome.com/license (Commercial License) Copyright 2024 Fonticons, Inc. --><path d="M64 48C37.5 48 16 69.5 16 96l0 320c0 26.5 21.5 48 48 48l320 0c26.5 0 48-21.5 48-48l0-320c0-26.5-21.5-48-48-48L64 48zM0 96C0 60.7 28.7 32 64 32l320 0c35.3 0 64 28.7 64 64l0 320c0 35.3-28.7 64-64 64L64 480c-35.3 0-64-28.7-64-64L0 96zm304 40c0-4.4 3.6-8 8-8s8 3.6 8 8l0 120 0 120c0 4.4-3.6 8-8 8s-8-3.6-8-8l0-112-160 0 0 112c0 4.4-3.6 8-8 8s-8-3.6-8-8l0-240c0-4.4 3.6-8 8-8s8 3.6 8 8l0 112 160 0 0-112z"/></svg>

<svg xmlns="http://www.w3.org/2000/svg" viewBox="0 0 448 512"><!--! Font Awesome Pro 6.4.2 by @fontawesome - https://fontawesome.com License - https://fontawesome.com/license (Commercial License) Copyright 2023 Fonticons, Inc. --><path d="M64 48C37.5 48 16 69.5 16 96V416c0 26.5 21.5 48 48 48H384c26.5 0 48-21.5 48-48V96c0-26.5-21.5-48-48-48H64zM0 96C0 60.7 28.7 32 64 32H384c35.3 0 64 28.7 64 64V416c0 35.3-28.7 64-64 64H64c-35.3 0-64-28.7-64-64V96zm304 40c0-4.4 3.6-8 8-8s8 3.6 8 8V256 376c0 4.4-3.6 8-8 8s-8-3.6-8-8V264H144l0 112c0 4.4-3.6 8-8 8s-8-3.6-8-8l0-240c0-4.4 3.6-8 8-8s8 3.6 8 8V248H304V136z"/></svg>
